X:1
T: The Flogging Reel
C:
R:Reel
Q: 232
K:G
M:4/4
L:1/8
dc|BG ((3GFG) BG dG|BG ((3GFG) Bd gd|BG ((3GFG) Bd cB|AG FG AB cA|
BG ((3GFG) BG dG|BG ((3GFG) Bd gd|BG ((3GFG) Bd cB|AG FG AB cA|
gf gd BG Bd|gf ge fg af|gf gd Bc dB|AG FG AB cA|
gf ge BG Bd|gf ge fg af|c'g af ge dB|AG FG AB cA|
Bd gd ((3Bcd) gd|Bd gd BG GB|Ac =fc ((3ABc) fc|Ac =fc AF Fc|
Bd gd ((3Bcd) gd|Bd ef gf ga|bg af ge dB|AG FG AB cA|
BG ((3GFG) BG dG|BG ((3GFG) Bd gd|BG ((3GFG) Bd cB|AG FG AB cA|
BG ((3GFG) BG dG|BG ((3GFG) Bd gd|BG ((3GFG) Bd cB|AG FG AB cA||
